!!!XEN: Song of the deer (b)
!!!AGN: Dream song
!!!COM: Anonymous
!!!CNT: Native American -- Ojibway
!!!TXO: Ojibway
!!!MLC: Lac du Flambeau reservation, northern Wisconsin, U.S.A.
!!!MRD: 1909-1912///
!!!MPN: E'niwub'e ("Sits farther along")
**kern
*MM100
*Imale
*k[b-e-a-d-]
*clefF4
*M2/4
=1
8d-
8d-
8c
8c
=2
8B-
8B-
8.A-
16c
=3
8c
8c
8B-
8B-
=4
*M3/4
8A-
8A-
8F
8F
8.E-
16A-
=5
8A-
8F
8E-
8F
8E-
8E-
=6
*M2/4
8.E-
16E-
8E-
8E-
=7
4E-
8E-
8E-
=8
*M3/4
[2E-
8.E-]
16E-
=9
*M2/4
4E-
8E-
8E-
=10
2E-
==
*-
!!!OCL: Frances Densmore
!!!YOR: Chippewa [i.e., Ojibway] Music--II, Bulletin 53 of the Bureau of American Ethnology, Smitsonian Institution
!!!ONM: 96
!!!PPG: 200
!!!PUB: published
!!!PPR: Government Printing Office
!!!PPP: Washington, D.C.
!!!PDT: 1912///
!!!EST: missing clef changes, text, drum tempo, and drum part
!!!YEC: Copyright 1998 Paul von Hippel
!!!YEM: Rights to all derivate electronic formats reserved.
!!!EFL: 32/42
